public/icons/svg/devices.svg

<svg fill="none" height="34" viewBox="0 0 44 34" width="44" xmlns="http://www.w3.org/2000/svg"><path d="m39 6.5h-3v-1.5c0-1.19347-.4741-2.33807-1.318-3.18198-.8439-.843914-1.9885-1.31802-3.182-1.31802h-27c-1.19347 0-2.33807.474106-3.18198 1.31802-.843914.84391-1.31802 1.98851-1.31802 3.18198v18c0 1.1935.474106 2.3381 1.31802 3.182.84391.8439 1.98851 1.318 3.18198 1.318h21v1.5c0 1.1935.4741 2.3381 1.318 3.182s1.9885 1.318 3.182 1.318h9c1.1935 0 2.3381-.4741 3.182-1.318s1.318-1.9885 1.318-3.182v-18c0-1.19347-.4741-2.33807-1.318-3.18198s-1.9885-1.31802-3.182-1.31802zm-34.5 18c-.39782 0-.77936-.158-1.06066-.4393s-.43934-.6629-.43934-1.0607v-18c0-.39782.15804-.77936.43934-1.06066s.66284-.43934 1.06066-.43934h27c.3978 0 .7794.15804 1.0607.43934s.4393.66284.4393 1.06066v1.5h-3c-1.1935 0-2.3381.47411-3.182 1.31802s-1.318 1.98851-1.318 3.18198v13.5zm36 4.5c0 .3978-.158.7794-.4393 1.0607s-.6629.4393-1.0607.4393h-9c-.3978 0-.7794-.158-1.0607-.4393s-.4393-.6629-.4393-1.0607v-18c0-.3978.158-.7794.4393-1.06066.2813-.2813.6629-.43934 1.0607-.43934h9c.3978 0 .7794.15804 1.0607.43934.2813.28126.4393.66286.4393 1.06066zm-18 3c0 .3978-.158.7794-.4393 1.0607s-.6629.4393-1.0607.4393h-7.5c-.3978 0-.7794-.158-1.0607-.4393s-.4393-.6629-.4393-1.0607.158-.7794.4393-1.0607.6629-.4393 1.0607-.4393h7.5c.3978 0 .7794.158 1.0607.4393s.4393.6629.4393 1.0607zm15-18c0 .3978-.158.7794-.4393 1.0607s-.6629.4393-1.0607.4393h-3c-.3978 0-.7794-.158-1.0607-.4393s-.4393-.6629-.4393-1.0607.158-.7794.4393-1.0607.6629-.4393 1.0607-.4393h3c.3978 0 .7794.158 1.0607.4393s.4393.6629.4393 1.0607z"/></svg>

<svg width="44" height="34" viewBox="0 0 44 34" fill="none" xmlns="http://www.w3.org/2000/svg">
<path d="M39 6.5H36V5C36 3.80653 35.5259 2.66193 34.682 1.81802C33.8381 0.974106 32.6935 0.5 31.5 0.5H4.5C3.30653 0.5 2.16193 0.974106 1.31802 1.81802C0.474106 2.66193 0 3.80653 0 5V23C0 24.1935 0.474106 25.3381 1.31802 26.182C2.16193 27.0259 3.30653 27.5 4.5 27.5H25.5V29C25.5 30.1935 25.9741 31.3381 26.818 32.182C27.6619 33.0259 28.8065 33.5 30 33.5H39C40.1935 33.5 41.3381 33.0259 42.182 32.182C43.0259 31.3381 43.5 30.1935 43.5 29V11C43.5 9.80653 43.0259 8.66193 42.182 7.81802C41.3381 6.97411 40.1935 6.5 39 6.5ZM4.5 24.5C4.10218 24.5 3.72064 24.342 3.43934 24.0607C3.15804 23.7794 3 23.3978 3 23V5C3 4.60218 3.15804 4.22064 3.43934 3.93934C3.72064 3.65804 4.10218 3.5 4.5 3.5H31.5C31.8978 3.5 32.2794 3.65804 32.5607 3.93934C32.842 4.22064 33 4.60218 33 5V6.5H30C28.8065 6.5 27.6619 6.97411 26.818 7.81802C25.9741 8.66193 25.5 9.80653 25.5 11V24.5H4.5ZM40.5 29C40.5 29.3978 40.342 29.7794 40.0607 30.0607C39.7794 30.342 39.3978 30.5 39 30.5H30C29.6022 30.5 29.2206 30.342 28.9393 30.0607C28.658 29.7794 28.5 29.3978 28.5 29V11C28.5 10.6022 28.658 10.2206 28.9393 9.93934C29.2206 9.65804 29.6022 9.5 30 9.5H39C39.3978 9.5 39.7794 9.65804 40.0607 9.93934C40.342 10.2206 40.5 10.6022 40.5 11V29ZM22.5 32C22.5 32.3978 22.342 32.7794 22.0607 33.0607C21.7794 33.342 21.3978 33.5 21 33.5H13.5C13.1022 33.5 12.7206 33.342 12.4393 33.0607C12.158 32.7794 12 32.3978 12 32C12 31.6022 12.158 31.2206 12.4393 30.9393C12.7206 30.658 13.1022 30.5 13.5 30.5H21C21.3978 30.5 21.7794 30.658 22.0607 30.9393C22.342 31.2206 22.5 31.6022 22.5 32ZM37.5 14C37.5 14.3978 37.342 14.7794 37.0607 15.0607C36.7794 15.342 36.3978 15.5 36 15.5H33C32.6022 15.5 32.2206 15.342 31.9393 15.0607C31.658 14.7794 31.5 14.3978 31.5 14C31.5 13.6022 31.658 13.2206 31.9393 12.9393C32.2206 12.658 32.6022 12.5 33 12.5H36C36.3978 12.5 36.7794 12.658 37.0607 12.9393C37.342 13.2206 37.5 13.6022 37.5 14Z" />
</svg>
